X:1
T:Be Careful What You Sow
T:Be Careful What You Sow
T:Charles Clinton Case, 1892
T:Daniel Webster Whittle, 1889, alt.
T:Public Domain Courtesy of the Cyber Hymnal™
T:Public Domain Courtesy of the Cyber Hymnal™
C:Charles Clinton Case, 1892
Z:Public Domain
Z:Courtesy of the Cyber Hymnal™
%%score ( 1 2 ) ( 3 4 )
L:1/8
Q:1/4=83
M:2/4
K:G
V:1 treble 
V:2 treble 
V:3 bass 
V:4 bass 
V:1
 [B,D] | [B,D][DB] [DB]>[DB] | ([Ec] [DB]2) [DA] | [EG][^DF] [EG]>[CE] | ([CE] [B,D]2) [B,D] | %5
w: 1.~Be|care- ful what you|sow, * For|seed will sure- ly|grow; * The|
w: 2.~Be|care- ful what you|sow, * For|seed will sure- ly|grow; * Where|
w: 3.~Be|care- ful what you|sow, * The|weed you plant will|grow; * The|
w: 4.~Then|let us sow good|deeds, * And|not the briars and|weeds; * Then|
 [CD][CA] [CA]>[CD] | [B,D][DB] [DB]>[DE] | [CE][Ec] [Ec]>[EB] | [FA][G^c] [Fd]>[=CD] | %9
w: dew will fall, the|rain will splash, The|clouds grow dark, the|light- ning flash; And|
w: it may fall, you|can- not know, In|sun or shade, ’twill|sure- ly grow; And|
w: scat- tered seed, from|thought- less hand, Must|ga- thered be, by|God’s com- mand; And|
w: har- vest time its|joys shall bring, And|when we reap, our|hearts shall sing; And|
 [B,D][DB] [DB][DB] | [Ec]>[Ec] [DB]>[DA] | [EG][^DF] [EG]>[CE] | [CE] [B,D]2 [B,D] | %13
w: he who sows good|seed to- day, Shall|reap good seed to-|mor- row; And|
w: he who sows good|seed to- day, Shall|reap good seed to-|mor- row; And|
w: he who sows wild|oats to- day, Must|reap the crop to-|mor- row; And|
w: he who sows good|seed to- day Shall|reap good seed to-|mor- row; And|
 D[=Fd] [Fd][Fd] | [Ed]>[Ec] [Ec]>[CE] | [CD][Dc] [DB]>[CA] | [CA] !fermata![B,G]2 || %17
w: he who sows good|seed to- day, Shall|reap with joy to-|mor- row.|
w: he who sows good|seed to- day, Shall|reap with joy to-|mor- row.|
w: he who sows wild|oats to- day, Shall|reap with tears to-|mor- row.|
w: he who sows good|seed to- day Shall|reap good seed to-|mor- row.|
"^Refrain" [GB] | [Bd][Bd] [^Ge]>[Bd] | ([Bd] [Ac]2) E | [Ac][Ac] [Fd]>[Ac] | ([Ac] [GB]2) D | %22
w: |||||
w: Be|care- ful what you|sow, * For|seed will sure- ly|grow; * And|
w: |||||
w: |||||
 [DB][DB] [Dc]>[GB] | [EB]>[EA] E>[Ge] | [Fe]>[Fd] !fermata![Fd]>[DF] | [DA] [DG]2 |] %26
w: ||||
w: he who sows good|seed to- day, Shall|reap with joy to-|mor- row.|
w: ||||
w: ||||
V:2
 x | x4 | x4 | x4 | x4 | x4 | x4 | x4 | x4 | x4 | x4 | x4 | x4 | D x3 | x4 | x4 | x3 || x | x4 | %19
 x3 E | x4 | x3 D | x4 | x2 E3/2 x/ | x4 | x3 |] %26
V:3
 z | [G,,G,][G,,G,] [G,,G,]>[G,,G,] | [G,,G,]3 [B,,G,] | [C,G,][C,G,] [C,G,]>[C,G,] | %4
w: |~ ~ ~ ~|~ ~|~ ~ ~ ~|
 [G,,G,]3 [G,,G,] | [D,F,][D,F,] [D,F,]>[D,F,] | [G,,G,][G,,G,] [G,,G,]>[^G,,^G,] | %7
w: ~ ~|~ ~ ~ ~|~ ~ ~ ~|
 [A,,A,][A,,A,] [A,,A,]>[C,B,] | [D,A,][A,,A,] [D,A,]>[D,A,] | [G,,G,][G,,G,] [G,,G,][G,,G,] | %10
w: ~ ~ ~ ~|~ ~ ~ ~|~ ~ ~ ~|
 [G,,G,]>[G,,G,] [G,,G,]>[B,,G,] | [C,G,][C,G,] [C,G,]>[C,G,] | [G,,G,]3 [G,B,] | %13
w: ~ ~ ~ ~|~ ~ ~ ~|~ ~|
 [^G,B,][G,B,] [G,B,][G,B,] | [A,C]>[A,C] [A,C]>[C,A,] | [D,F,][D,F,] [D,F,]>[D,F,] | %16
w: ~ ~ ~ ~|~ ~ ~ ~|~ ~ ~ ~|
 [G,,G,] !fermata![G,,G,]2 || z | z2 z3/2 [E,E]/ | [A,E][A,E] [A,E] z | z2 z3/2 [D,D]/ | %21
w: ~ ~||what|seed you sow,|will|
 [G,D][G,D] [G,D][G,D] | G,[G,,G,] [A,,F,]>[B,,G,] | [C,A,]>[C,A,] [C,A,]>[^C,A,] | %24
w: sure- ly grow, *|||
 [D,A,]>[D,B,] !fermata![D,C]>[D,C] | [D,C] [G,B,]2 |] %26
w: ||
V:4
 x | x4 | x4 | x4 | x4 | x4 | x4 | x4 | x4 | x4 | x4 | x4 | x4 | x4 | x4 | x4 | x3 || x | x4 | x4 | %20
 x4 | x4 | G, x3 | x4 | x4 | x3 |] %26

